!!!COM: Music21
!!!OTL: Rumba de Malpica
!!!OMV: pezas_rumbas_rumba-de-malpica_rumba-de-malpica-partitura.musicxml
**kern
*I"Bagpipes
*I'Bag
*clefG^2
*k[]
*M2/4
=1
!LO:TX:a:t=Andante
*MM96
!LO:TX:a:t=[quarter]=96
4r
8ggL
8eeJ
=||
8.ccL
16eeJk
16ddLL
16ee
16ff
16ddJJ
=
8eeL
8ccJ
8ggL
8eeJ
=
8.ccL
16eeJk
16ddLL
16ee
16ff
16ddJJ
=
4cc
8ggL
8eeJ
=
8.ccL
16eeJk
16ddLL
16ee
16ff
16ddJJ
=
8eeL
8ccJ
8eeL
8ffJ
=
8ggL
8eeJ
8ffL
8ddJ
=
4cc
8ggL
8eeJ
!!linebreak:original
=||
8.ccL
16eeJk
16ddLL
16ee
16ff
16ddJJ
=
8eeL
8ccJ
8ggL
8eeJ
=
8.ccL
16eeJk
16ddLL
16ee
16ff
16ddJJ
=
4cc
8ggL
8eeJ
=
8.ccL
16eeJk
16ddLL
16ee
16ff
16ddJJ
=
8eeL
8ccJ
8eeL
8ffJ
!!linebreak:original
=
8ggL
8eeJ
8ffL
8ddJ
=||
4cc
8ggL
8aaJ
=||
8.bbL
16aaJk
16bbLL
16aa
16bb
16aaJJ
=
8ggL
8eeJ
8ggL
8aaJ
=
8.bbL
16aaJk
16bbLL
16aa
16bb
16aaJJ
=
4gg
8eeL
8ffJ
=
8.ggL
16ggJk
16ffLL
16ee
16ff
16ddJJ
=
8ggL
8eeJ
8eeL
8ffJ
!!linebreak:original
=
8.ggL
16ggJk
16ffLL
16ee
16ff
16ddJJ
=
4cc
8ggL
8aaJ
=||
8.bbL
16aaJk
16bbLL
16aa
16bb
16aaJJ
=
8ggL
8eeJ
8ggL
8aaJ
=
8.bbL
16aaJk
16bbLL
16aa
16bb
16aaJJ
=
4gg
8eeL
8ffJ
=
8.ggL
16ggJk
16ffLL
16ee
16ff
16ddJJ
=
8ggL
8eeJ
8eeL
8ffJ
!!linebreak:original
=
8.ggL
16ggJk
16ffLL
16ee
16ff
16ddJJ
=
4cc
8ggL
8eeJ
=||
8cc
4.r
==
*-
